src/lib/packages/icons/src/assets/filled/message-text-check.svg

<svg xmlns="http://www.w3.org/2000/svg" width="24" height="24" fill="none"><path fill="currentColor" d="M18 3H6C4 3 3 4 3 6v15l3-3h7.747c.234 0 .31-.224.295-.339a5.003 5.003 0 0 1-.041-.661c0-2.76 2.24-5 5-5a5.08 5.08 0 0 1 1.597.258.3.3 0 0 0 .402-.278V6c0-2-1-3-3-3Zm-5 10.25H8a.75.75 0 0 1 0-1.5h5a.75.75 0 0 1 0 1.5Zm3-4H8a.75.75 0 0 1 0-1.5h8a.75.75 0 0 1 0 1.5Zm1.667 10.167a.744.744 0 0 1-.53-.22L15.47 17.53a.75.75 0 1 1 1.061-1.061l1.137 1.136 2.803-2.803a.75.75 0 0 1 1.061 1.061l-3.333 3.333a.753.753 0 0 1-.532.221Z"/></svg>

<svg width="24" height="24" viewBox="0 0 24 24" fill="none" xmlns="http://www.w3.org/2000/svg">
<path d="M18 3H6C4 3 3 4 3 6V21L6 18H13.7471C13.9811 18 14.057 17.776 14.042 17.661C14.013 17.444 14.001 17.222 14.001 17C14.001 14.24 16.241 12 19.001 12C19.558 12 20.0969 12.0921 20.5979 12.2581C20.7959 12.3241 21.001 12.188 21.001 11.979V6C21 4 20 3 18 3ZM13 13.25H8C7.586 13.25 7.25 12.914 7.25 12.5C7.25 12.086 7.586 11.75 8 11.75H13C13.414 11.75 13.75 12.086 13.75 12.5C13.75 12.914 13.414 13.25 13 13.25ZM16 9.25H8C7.586 9.25 7.25 8.914 7.25 8.5C7.25 8.086 7.586 7.75 8 7.75H16C16.414 7.75 16.75 8.086 16.75 8.5C16.75 8.914 16.414 9.25 16 9.25ZM17.667 19.417C17.475 19.417 17.283 19.344 17.137 19.197L15.47 17.53C15.177 17.238 15.177 16.762 15.47 16.469C15.763 16.176 16.238 16.176 16.531 16.469L17.668 17.605L20.4709 14.802C20.7639 14.509 21.239 14.509 21.532 14.802C21.825 15.095 21.825 15.57 21.532 15.863L18.199 19.196C18.051 19.343 17.859 19.417 17.667 19.417Z" fill="currentColor"/>
</svg>
